!!!OTL: La Paloma Mich rief es an Bord,
!!!ARE: Europa, Mitteleuropa, Deutschland, Schleswig - Holstein
!!!SCT: D0229
!!!YEM: Copyright 1995, estate of Helmut Schaffrath.
**kern
*ICvox
*Ivox
*M2/4
*k[]
*C:
=1
{8g
=2
[2g
=3
16g]
8e
16f
8g
8a
=4
16b
8cc
16a
8b
8g
=5
[2f
=6
4f]
8r}
{8g
=7
[2dd
=8
8dd]
8ee
16cc
16dd
8b
=9
16cc
8b
16a
8g
8f
=10
[2e
=11
4e]
8r}
{8g
=12
[2g
=13
16g]
8e
16f
8g
8a
=14
16b
8cc
16a
8b
8g
=15
[2f
=16
4f]
8r}
{8g
=17
[2dd
=18
16dd]
8ee
16cc
8dd
8b
=19
16cc
8b
16a
8g
8f
=20
2e}
=21
{16cc
8cc
16cc
8cc
8b
=22
16dd
8dd
16cc
8b
8a
=23
8a
[4.g
=24
2g]}
=25
{16b
8b
16b
8b
8a
=26
16a
8g
16g
8g
8a
=27
16g
16f
[4.e
=28
2e]}
=29
{16cc
8cc
16cc
8cc
8b
=30
16dd
8dd
16cc
8b
8a
=31
8a
[4.g
=32
2g]}
=33
{16b
8b
16b
8b
8a
=34
16a
8g
16g
8g
8a
=35
16g
16f
[4.e
=36
8e]}
{16g
16g
16g
8a
16f#
=37
2g
=38
8r
16g
16g
16g
8g
16a
=39
4b}
{[4dd
=40
16dd]
8ee
16cc
16dd
8b
16cc
=41
16a
8b
16cc
8.ee
16dd
=42
16d
8e
16f
8.a
16g
=43
2e
=44
8r}
{16g
16g
16g
8a
16f#
=45
2g
=46
8r
16g
16g
16g
8g
16a
=47
4b}
{[4dd
=48
16dd]
8ff
16ee
16dd
8ee
16cc
=49
16dd
8b
16cc
8.ee
16dd
=50
16d
8e
16f
8.a
16g
=51
4.cc}
==
!!!AGN: Staende - Lied, Seemannslied
!! moduliert in die Dominanttonart; mit Klavierbegleitung;
!!    rhythmische Korrekturen in der zehnten Zeile und im Schlusstakt
!!    Inzipit = Variante zum Lied
!!!ONB: ESAC (Essen Associative Code) Database: DVA
!!!AMT: simple duple
!!!AIN: vox
!!!EED: Helmut Schaffrath
!!!EEV: 1.0
*-
